src/img/exc.svg

<svg width="60" height="37" viewBox="0 0 60 37" fill="none" xmlns="http://www.w3.org/2000/svg">
<path d="M10.6413 5.15075V3.43263H5.36384V12.0332H10.6413V10.3089H7.12259V8.59067H8.88251V6.86888H7.12259V5.15075H10.6413Z" fill="url(#paint0_linear)"/>
<path d="M17.9199 12.0332H20.008L17.1964 7.72977L20.0152 3.43263H17.9269L16.1522 6.13268L14.3775 3.43263H12.2893L15.1081 7.72977L12.2964 12.0332H14.3846L16.1522 9.32686L17.9199 12.0332Z" fill="url(#paint1_linear)"/>
<path d="M24.7189 5.13994H26.4809V3.43283H24.7189C22.2903 3.43283 20.3144 5.35241 20.3144 7.72997C20.3144 10.0221 22.3437 12.0333 24.727 12.0333H26.4809V10.309H24.7238C23.3091 10.309 22.0731 9.12079 22.0731 7.72986C22.0733 6.30176 23.26 5.13994 24.7189 5.13994Z" fill="url(#paint2_linear)"/>
<path d="M28.2602 3.43263V12.0332H33.5051V10.3089H30.0189V3.43263H28.2602Z" fill="url(#paint3_linear)"/>
<path d="M35.2603 3.43263V8.58585C35.2603 10.4867 36.8398 12.0331 38.7814 12.0331C40.723 12.0331 42.3026 10.4866 42.3026 8.58585V3.43263H40.5439V8.58585C40.5439 9.53738 39.7532 10.3113 38.7814 10.3113C37.8095 10.3113 37.019 9.53726 37.019 8.58585V3.43263H35.2603Z" fill="url(#paint4_linear)"/>
<path d="M8.90701 20.64H5.36279V22.3618H8.91099C12.3836 22.2744 12.3399 17.3241 8.90162 17.2344C8.90174 17.2344 8.00467 17.2336 8.00467 17.2336C6.86947 17.2137 6.8683 15.5524 8.00549 15.533H11.5216V13.7601H8.00549C4.54646 13.8498 4.54576 18.8631 8.00314 18.9554C8.00303 18.9554 8.89998 18.9562 8.89998 18.9562C10.0192 18.9739 10.0603 20.6338 8.90701 20.64Z" fill="url(#paint5_linear)"/>
<path d="M13.2795 13.7601H15.0383V22.3618H13.2795V13.7601Z" fill="url(#paint6_linear)"/>
<path d="M27.3495 22.3618H32.627V20.64H29.1083V18.9219H30.8683V17.2001H29.1083V15.4819H32.627V13.7601H27.3495V22.3618Z" fill="url(#paint7_linear)"/>
<path d="M21.891 22.3618L25.6318 13.7601H23.7182L21.1816 19.6029L18.6447 13.7601H16.7312L20.4721 22.3618H21.891Z" fill="url(#paint8_linear)"/>
<path d="M44.0578 6.86874H49.3331V8.59054H44.0578V6.86874Z" fill="url(#paint9_linear)"/>
<path d="M-6.10352e-05 0V25.8124H18.5541V24.0906H1.75869V1.72179H58.2412V18.6624C57.5283 17.4999 56.6125 16.4486 55.5158 15.5594L54.3938 16.8855C56.8388 18.868 58.2411 21.7857 58.2411 24.8901C58.2411 30.6181 53.4809 35.2782 47.63 35.2782C41.779 35.2782 37.0189 30.6181 37.0189 24.8901C37.0189 19.1621 41.779 14.5019 47.63 14.5019C49.4963 14.5019 51.3311 14.9826 52.9361 15.8918L53.8171 14.4017C51.9447 13.3409 49.8052 12.7802 47.63 12.7802C41.0836 12.7802 35.7098 17.7845 35.2878 24.0906H23.8303V25.8124H35.2958C35.7787 32.0606 41.1261 37 47.63 37C54.4298 37 59.965 31.6008 59.999 24.9515L59.9999 0H-6.10352e-05Z" fill="url(#paint10_linear)"/>
<path d="M20.3139 24.0905H22.0715V25.8122H20.3139V24.0905Z" fill="url(#paint11_linear)"/>
<path d="M45.3836 23.4599L42.3112 20.718V29.2481H52.8642V20.7145L49.7807 23.4736L47.5776 21.5021L45.3836 23.4599ZM51.1054 24.6209V27.5263H44.0701V24.6175L45.3837 25.7897L47.576 23.8333L49.7807 25.8064L51.1054 24.6209Z" fill="url(#paint12_linear)"/>
<path d="M38.7751 24.0873H40.5338V25.8091H38.7751V24.0873Z" fill="url(#paint13_linear)"/>
<path d="M54.6114 24.0873H56.3702V25.8091H54.6114V24.0873Z" fill="url(#paint14_linear)"/>
<defs>
<linearGradient id="paint0_linear" x1="29.9999" y1="0" x2="29.9999" y2="37" gradientUnits="userSpaceOnUse">
<stop stop-color="#20BFF0"/>
<stop offset="1" stop-color="#7C35F7"/>
</linearGradient>
<linearGradient id="paint1_linear" x1="29.9999" y1="0" x2="29.9999" y2="37" gradientUnits="userSpaceOnUse">
<stop stop-color="#20BFF0"/>
<stop offset="1" stop-color="#7C35F7"/>
</linearGradient>
<linearGradient id="paint2_linear" x1="29.9999" y1="0" x2="29.9999" y2="37" gradientUnits="userSpaceOnUse">
<stop stop-color="#20BFF0"/>
<stop offset="1" stop-color="#7C35F7"/>
</linearGradient>
<linearGradient id="paint3_linear" x1="29.9999" y1="0" x2="29.9999" y2="37" gradientUnits="userSpaceOnUse">
<stop stop-color="#20BFF0"/>
<stop offset="1" stop-color="#7C35F7"/>
</linearGradient>
<linearGradient id="paint4_linear" x1="29.9999" y1="0" x2="29.9999" y2="37" gradientUnits="userSpaceOnUse">
<stop stop-color="#20BFF0"/>
<stop offset="1" stop-color="#7C35F7"/>
</linearGradient>
<linearGradient id="paint5_linear" x1="29.9999" y1="0" x2="29.9999" y2="37" gradientUnits="userSpaceOnUse">
<stop stop-color="#20BFF0"/>
<stop offset="1" stop-color="#7C35F7"/>
</linearGradient>
<linearGradient id="paint6_linear" x1="29.9999" y1="0" x2="29.9999" y2="37" gradientUnits="userSpaceOnUse">
<stop stop-color="#20BFF0"/>
<stop offset="1" stop-color="#7C35F7"/>
</linearGradient>
<linearGradient id="paint7_linear" x1="29.9999" y1="0" x2="29.9999" y2="37" gradientUnits="userSpaceOnUse">
<stop stop-color="#20BFF0"/>
<stop offset="1" stop-color="#7C35F7"/>
</linearGradient>
<linearGradient id="paint8_linear" x1="29.9999" y1="0" x2="29.9999" y2="37" gradientUnits="userSpaceOnUse">
<stop stop-color="#20BFF0"/>
<stop offset="1" stop-color="#7C35F7"/>
</linearGradient>
<linearGradient id="paint9_linear" x1="29.9999" y1="0" x2="29.9999" y2="37" gradientUnits="userSpaceOnUse">
<stop stop-color="#20BFF0"/>
<stop offset="1" stop-color="#7C35F7"/>
</linearGradient>
<linearGradient id="paint10_linear" x1="29.9999" y1="0" x2="29.9999" y2="37" gradientUnits="userSpaceOnUse">
<stop stop-color="#20BFF0"/>
<stop offset="1" stop-color="#7C35F7"/>
</linearGradient>
<linearGradient id="paint11_linear" x1="29.9999" y1="0" x2="29.9999" y2="37" gradientUnits="userSpaceOnUse">
<stop stop-color="#20BFF0"/>
<stop offset="1" stop-color="#7C35F7"/>
</linearGradient>
<linearGradient id="paint12_linear" x1="29.9999" y1="0" x2="29.9999" y2="37" gradientUnits="userSpaceOnUse">
<stop stop-color="#20BFF0"/>
<stop offset="1" stop-color="#7C35F7"/>
</linearGradient>
<linearGradient id="paint13_linear" x1="29.9999" y1="0" x2="29.9999" y2="37" gradientUnits="userSpaceOnUse">
<stop stop-color="#20BFF0"/>
<stop offset="1" stop-color="#7C35F7"/>
</linearGradient>
<linearGradient id="paint14_linear" x1="29.9999" y1="0" x2="29.9999" y2="37" gradientUnits="userSpaceOnUse">
<stop stop-color="#20BFF0"/>
<stop offset="1" stop-color="#7C35F7"/>
</linearGradient>
</defs>
</svg>

<svg width="60" height="37" fill="none" xmlns="http://www.w3.org/2000/svg"><path d="M10.641 5.15V3.434H5.364v8.6h5.277V10.31H7.123V8.59h1.76V6.869h-1.76V5.15h3.518Z" fill="url(#a)"/><path d="M17.92 12.033h2.088L17.196 7.73l2.82-4.297h-2.09l-1.774 2.7-1.775-2.7H12.29l2.82 4.297-2.813 4.303h2.089l1.767-2.706 1.768 2.706Z" fill="url(#b)"/><path d="M24.719 5.14h1.762V3.433h-1.762c-2.429 0-4.405 1.92-4.405 4.297 0 2.292 2.03 4.303 4.413 4.303h1.754V10.31h-1.757c-1.415 0-2.65-1.188-2.65-2.58 0-1.427 1.186-2.59 2.645-2.59Z" fill="url(#c)"/><path d="M28.26 3.433v8.6h5.245V10.31H30.02V3.433h-1.76Z" fill="url(#d)"/><path d="M35.26 3.433v5.153c0 1.9 1.58 3.447 3.521 3.447 1.942 0 3.522-1.546 3.522-3.447V3.433h-1.76v5.153c0 .951-.79 1.725-1.762 1.725-.971 0-1.762-.774-1.762-1.725V3.433H35.26Z" fill="url(#e)"/><path d="M8.907 20.64H5.363v1.722H8.91c3.473-.088 3.429-5.038-.01-5.128h-.896c-1.136-.02-1.137-1.682 0-1.701h3.517V13.76H8.005c-3.459.09-3.46 5.103-.002 5.195l.897.001c1.12.018 1.16 1.678.007 1.684Z" fill="url(#f)"/><path d="M13.28 13.76h1.758v8.602H13.28V13.76Z" fill="url(#g)"/><path d="M27.35 22.362h5.277V20.64h-3.519v-1.718h1.76V17.2h-1.76v-1.718h3.519V13.76h-5.278v8.602Z" fill="url(#h)"/><path d="m21.891 22.362 3.74-8.602h-1.913l-2.536 5.843-2.537-5.843H16.73l3.741 8.602h1.419Z" fill="url(#i)"/><path d="M44.058 6.869h5.275V8.59h-5.275V6.869Z" fill="url(#j)"/><path d="M0 0v25.812h18.554v-1.721H1.76V1.72h56.48v16.941a12.217 12.217 0 0 0-2.725-3.103l-1.122 1.327c2.445 1.982 3.847 4.9 3.847 8.004 0 5.728-4.76 10.388-10.611 10.388-5.851 0-10.611-4.66-10.611-10.388s4.76-10.388 10.611-10.388c1.866 0 3.701.48 5.306 1.39l.881-1.49a12.57 12.57 0 0 0-6.187-1.622c-6.546 0-11.92 5.005-12.342 11.31H23.83v1.722h11.466C35.779 32.061 41.126 37 47.63 37c6.8 0 12.335-5.4 12.369-12.049V0H0Z" fill="url(#k)"/><path d="M20.314 24.09h1.758v1.722h-1.758V24.09Z" fill="url(#l)"/><path d="m45.384 23.46-3.073-2.742v8.53h10.553v-8.534l-3.083 2.76-2.203-1.972-2.194 1.958Zm5.721 1.16v2.906H44.07v-2.909l1.314 1.173 2.192-1.957 2.205 1.973 1.324-1.185Z" fill="url(#m)"/><path d="M38.775 24.087h1.759v1.722h-1.759v-1.722Z" fill="url(#n)"/><path d="M54.611 24.087h1.76v1.722h-1.76v-1.722Z" fill="url(#o)"/><defs><linearGradient id="a" x1="30" y1="0" x2="30" y2="37" gradientUnits="userSpaceOnUse"><stop stop-color="#20BFF0"/><stop offset="1" stop-color="#7C35F7"/></linearGradient><linearGradient id="b" x1="30" y1="0" x2="30" y2="37" gradientUnits="userSpaceOnUse"><stop stop-color="#20BFF0"/><stop offset="1" stop-color="#7C35F7"/></linearGradient><linearGradient id="c" x1="30" y1="0" x2="30" y2="37" gradientUnits="userSpaceOnUse"><stop stop-color="#20BFF0"/><stop offset="1" stop-color="#7C35F7"/></linearGradient><linearGradient id="d" x1="30" y1="0" x2="30" y2="37" gradientUnits="userSpaceOnUse"><stop stop-color="#20BFF0"/><stop offset="1" stop-color="#7C35F7"/></linearGradient><linearGradient id="e" x1="30" y1="0" x2="30" y2="37" gradientUnits="userSpaceOnUse"><stop stop-color="#20BFF0"/><stop offset="1" stop-color="#7C35F7"/></linearGradient><linearGradient id="f" x1="30" y1="0" x2="30" y2="37" gradientUnits="userSpaceOnUse"><stop stop-color="#20BFF0"/><stop offset="1" stop-color="#7C35F7"/></linearGradient><linearGradient id="g" x1="30" y1="0" x2="30" y2="37" gradientUnits="userSpaceOnUse"><stop stop-color="#20BFF0"/><stop offset="1" stop-color="#7C35F7"/></linearGradient><linearGradient id="h" x1="30" y1="0" x2="30" y2="37" gradientUnits="userSpaceOnUse"><stop stop-color="#20BFF0"/><stop offset="1" stop-color="#7C35F7"/></linearGradient><linearGradient id="i" x1="30" y1="0" x2="30" y2="37" gradientUnits="userSpaceOnUse"><stop stop-color="#20BFF0"/><stop offset="1" stop-color="#7C35F7"/></linearGradient><linearGradient id="j" x1="30" y1="0" x2="30" y2="37" gradientUnits="userSpaceOnUse"><stop stop-color="#20BFF0"/><stop offset="1" stop-color="#7C35F7"/></linearGradient><linearGradient id="k" x1="30" y1="0" x2="30" y2="37" gradientUnits="userSpaceOnUse"><stop stop-color="#20BFF0"/><stop offset="1" stop-color="#7C35F7"/></linearGradient><linearGradient id="l" x1="30" y1="0" x2="30" y2="37" gradientUnits="userSpaceOnUse"><stop stop-color="#20BFF0"/><stop offset="1" stop-color="#7C35F7"/></linearGradient><linearGradient id="m" x1="30" y1="0" x2="30" y2="37" gradientUnits="userSpaceOnUse"><stop stop-color="#20BFF0"/><stop offset="1" stop-color="#7C35F7"/></linearGradient><linearGradient id="n" x1="30" y1="0" x2="30" y2="37" gradientUnits="userSpaceOnUse"><stop stop-color="#20BFF0"/><stop offset="1" stop-color="#7C35F7"/></linearGradient><linearGradient id="o" x1="30" y1="0" x2="30" y2="37" gradientUnits="userSpaceOnUse"><stop stop-color="#20BFF0"/><stop offset="1" stop-color="#7C35F7"/></linearGradient></defs></svg>
